assets/icons/qvision/soap.svg

<svg xmlns="http://www.w3.org/2000/svg" enable-background="new 0 0 24 24" height="24" viewBox="0 0 24 24" width="24"><g><rect fill="none" height="24" width="24"/><path d="M9.12,5l-7.18,6.79C1.34,12.35,1,13.14,1,13.97V20c0,1.66,1.34,3,3,3h6.25H12h5.75c0.69,0,1.25-0.56,1.25-1.25 s-0.56-1.25-1.25-1.25H12v-1h7.75c0.69,0,1.25-0.56,1.25-1.25S20.44,17,19.75,17H12v-1h8.75c0.69,0,1.25-0.56,1.25-1.25 s-0.56-1.25-1.25-1.25H12v-1h6.75c0.69,0,1.25-0.56,1.25-1.25S19.44,10,18.75,10H8.86c0.64-1.11,1.48-2.58,1.49-2.61 c0.09-0.16,0.14-0.33,0.14-0.53c0-0.26-0.09-0.5-0.26-0.7C10.22,6.12,9.12,5,9.12,5L9.12,5z M14,6.25c0.41,0,0.75,0.34,0.75,0.75 S14.41,7.75,14,7.75S13.25,7.41,13.25,7S13.59,6.25,14,6.25 M14,4.75c-1.24,0-2.25,1.01-2.25,2.25S12.76,9.25,14,9.25 S16.25,8.24,16.25,7S15.24,4.75,14,4.75L14,4.75z M19.75,5.5c0.28,0,0.5,0.22,0.5,0.5s-0.22,0.5-0.5,0.5s-0.5-0.22-0.5-0.5 S19.47,5.5,19.75,5.5 M19.75,4c-1.1,0-2,0.9-2,2s0.9,2,2,2s2-0.9,2-2S20.85,4,19.75,4L19.75,4z M16.5,1C15.67,1,15,1.67,15,2.5 S15.67,4,16.5,4C17.33,4,18,3.33,18,2.5S17.33,1,16.5,1z"/></g></svg>

<svg width="24" height="24" viewBox="0 0 24 24" fill="none" xmlns="http://www.w3.org/2000/svg">
<g clip-path="url(#clip0_147_6289)">
<path d="M9.12 5L1.94 11.79C1.34 12.35 1 13.14 1 13.97V20C1 21.66 2.34 23 4 23H10.25H12H17.75C18.44 23 19 22.44 19 21.75C19 21.06 18.44 20.5 17.75 20.5H12V19.5H19.75C20.44 19.5 21 18.94 21 18.25C21 17.56 20.44 17 19.75 17H12V16H20.75C21.44 16 22 15.44 22 14.75C22 14.06 21.44 13.5 20.75 13.5H12V12.5H18.75C19.44 12.5 20 11.94 20 11.25C20 10.56 19.44 10 18.75 10H8.86C9.5 8.89 10.34 7.42 10.35 7.39C10.44 7.23 10.49 7.06 10.49 6.86C10.49 6.6 10.4 6.36 10.23 6.16C10.22 6.12 9.12 5 9.12 5ZM14 6.25C14.41 6.25 14.75 6.59 14.75 7C14.75 7.41 14.41 7.75 14 7.75C13.59 7.75 13.25 7.41 13.25 7C13.25 6.59 13.59 6.25 14 6.25ZM14 4.75C12.76 4.75 11.75 5.76 11.75 7C11.75 8.24 12.76 9.25 14 9.25C15.24 9.25 16.25 8.24 16.25 7C16.25 5.76 15.24 4.75 14 4.75ZM19.75 5.5C20.03 5.5 20.25 5.72 20.25 6C20.25 6.28 20.03 6.5 19.75 6.5C19.47 6.5 19.25 6.28 19.25 6C19.25 5.72 19.47 5.5 19.75 5.5ZM19.75 4C18.65 4 17.75 4.9 17.75 6C17.75 7.1 18.65 8 19.75 8C20.85 8 21.75 7.1 21.75 6C21.75 4.9 20.85 4 19.75 4ZM16.5 1C15.67 1 15 1.67 15 2.5C15 3.33 15.67 4 16.5 4C17.33 4 18 3.33 18 2.5C18 1.67 17.33 1 16.5 1Z" fill="#323232"/>
</g>
<defs>
<clipPath id="clip0_147_6289">
<rect width="24" height="24" fill="white"/>
</clipPath>
</defs>
</svg>
